img/e/eqbank.ca.svg

<svg xmlns="http://www.w3.org/2000/svg" xml:space="preserve" style="fill-rule:evenodd;clip-rule:evenodd;stroke-linejoin:round;stroke-miterlimit:2" viewBox="0 0 98 100"><path d="M-5-6h105v115H-5z" style="fill:none" transform="matrix(.93333 0 0 .86957 4.667 5.217)"/><path d="M8.19 99h46.37c5.6 0 12.85-2.8 16.26-6.2 3-3 13-13.46 19.74-20.51a21.83 21.83 0 0 0 6.38-16.1V8.36c0-4.038-3.322-7.36-7.36-7.36H43.05c-6.44 0-12.72 2.78-16.19 6.28-3 3-12.85 13.4-19.63 20.41a21.7 21.7 0 0 0-6.4 16.07v47.89C.83 95.682 4.148 99 8.18 99z" style="fill:#ffcb31;fill-rule:nonzero"/><path d="M77.92 59.94a22.1 22.1 0 0 0 2.2-10.38q0-8.75-4.29-13.41T63.45 31.5q-8.09 0-12.43 4.62t-4.33 13.39q0 8.76 4.31 13.49t12.4 4.68h.6l1.48 1.81.85 1v.06l.36.44q.267.307.58.57l.47.36a8.6 8.6 0 0 0 3.73 1.42H78l-6.49-7.26a13.38 13.38 0 0 0 6.41-6.14M63.41 61.4a7.84 7.84 0 0 1-6.68-3q-2.23-3-2.24-8.86c0-3.93.76-6.88 2.26-8.88a7.89 7.89 0 0 1 6.7-3q8.86 0 8.87 11.87T63.41 61.4M38 38.2c3.057-.093 5.566-2.537 5.74-5.59v-.56h-18.5c-3.197.06-5.795 2.703-5.8 5.9v29.21H38c3.057-.083 5.57-2.526 5.74-5.58v-.52H26.88v-8.31h10.27c3.039-.092 5.536-2.515 5.72-5.55v-.55h-16V38.2z" style="fill-rule:nonzero"/></svg>

<?xml version="1.0" encoding="UTF-8" standalone="no"?>
<!DOCTYPE svg PUBLIC "-//W3C//DTD SVG 1.1//EN" "http://www.w3.org/Graphics/SVG/1.1/DTD/svg11.dtd">
<svg width="100%" height="100%" viewBox="0 0 98 100" version="1.1" xmlns="http://www.w3.org/2000/svg" xmlns:xlink="http://www.w3.org/1999/xlink" xml:space="preserve" xmlns:serif="http://www.serif.com/" style="fill-rule:evenodd;clip-rule:evenodd;stroke-linejoin:round;stroke-miterlimit:2;">
    <g id="Artboard1" transform="matrix(0.933333,0,0,0.869565,4.666667,5.217391)">
        <rect x="-5" y="-6" width="105" height="115" style="fill:none;"/>
        <g transform="matrix(1.071429,0,0,1.15,-5,-6)">
            <path d="M8.19,99L54.56,99C60.16,99 67.41,96.2 70.82,92.8C73.82,89.8 83.82,79.34 90.56,72.29C94.815,68.035 97.125,62.204 96.94,56.19L96.94,8.36C96.94,4.322 93.618,1 89.58,1L43.05,1C36.61,1 30.33,3.78 26.86,7.28C23.86,10.28 14.01,20.68 7.23,27.69C2.964,31.926 0.644,37.751 0.83,43.76L0.83,91.64C0.83,91.643 0.83,91.647 0.83,91.65C0.83,95.682 4.148,99 8.18,99C8.183,99 8.187,99 8.19,99" style="fill:rgb(255,203,49);fill-rule:nonzero;"/>
        </g>
        <g transform="matrix(1.071429,0,0,1.15,-5,-6)">
            <path d="M77.92,59.94C79.486,56.71 80.241,53.147 80.12,49.56C80.12,43.727 78.69,39.257 75.83,36.15C72.97,33.043 68.843,31.493 63.45,31.5C58.057,31.5 53.913,33.04 51.02,36.12C48.127,39.2 46.683,43.663 46.69,49.51C46.69,55.35 48.127,59.847 51,63C53.873,66.153 58.007,67.713 63.4,67.68L64,67.68L65.48,69.49L66.33,70.49L66.33,70.55L66.69,70.99C66.868,71.195 67.062,71.385 67.27,71.56L67.74,71.92C68.855,72.68 70.132,73.166 71.47,73.34L78,73.34L71.51,66.08C74.283,64.823 76.545,62.656 77.92,59.94ZM63.41,61.4C60.826,61.567 58.322,60.442 56.73,58.4C55.243,56.4 54.497,53.447 54.49,49.54C54.49,45.61 55.25,42.66 56.75,40.66C58.351,38.619 60.861,37.495 63.45,37.66C69.357,37.66 72.313,41.617 72.32,49.53C72.327,57.443 69.357,61.4 63.41,61.4Z" style="fill-rule:nonzero;"/>
        </g>
        <g transform="matrix(1.071429,0,0,1.15,-5,-6)">
            <path d="M38,38.2C41.057,38.107 43.566,35.663 43.74,32.61L43.74,32.05L25.24,32.05C22.043,32.11 19.445,34.753 19.44,37.95L19.44,67.16L38,67.16C41.057,67.077 43.57,64.634 43.74,61.58L43.74,61.06L26.88,61.06L26.88,52.75L37.15,52.75C40.189,52.658 42.686,50.235 42.87,47.2L42.87,46.65L26.87,46.65L26.87,38.2L38,38.2Z" style="fill-rule:nonzero;"/>
        </g>
    </g>
</svg>
